Reading/media_Conding/LogicGate/IMPLY_ANSI.svg

<svg height="50" width="100" xmlns="http://www.w3.org/2000/svg"><path d="m-2.40625 44.5 2 2.4375s5.65625 7.000049 5.65625 17.5625-5.65625 17.5625-5.65625 17.5625l-2 2.4375h3.15625 14c2.408076.000001 7.689699.024514 13.625-2.40625s12.536536-7.343266 17.6875-16.875l-1.3125-.71875 1.3125-.71875c-10.303113-19.06566-26.555926-19.28125-31.3125-19.28125h-14zm5.875 3h11.28125c4.684173 0 18.28685-.130207 27.96875 17-4.766786 8.429075-10.521281 12.68391-15.71875 14.8125-5.360661 2.195424-9.841925 2.187501-12.25 2.1875h-11.25c1.8735884-3.108434 4.75-9.04935 4.75-17 0-7.973354-2.9085314-13.900185-4.78125-17z" fill-rule="evenodd" transform="translate(26.5 -39.5)"/><g stroke="#000" stroke-width="2"><path d="m23 15h-18"/><path d="m32 35h-27"/><path d="m70 25h25"/><circle cx="27" cy="15" fill="none" r="3"/></g></svg>

<?xml version="1.0" encoding="UTF-8" standalone="no"?>
<!-- Created with Notepad++ -->
<svg xmlns:svg="http://www.w3.org/2000/svg" xmlns="http://www.w3.org/2000/svg" version="1.0" width="100" height="50">
  <g>
    <g transform="translate(26.5,-39.5)">
      <path
         style="fill:#000000;fill-opacity:1;fill-rule:evenodd;stroke:none;stroke-width:3;stroke-linecap:butt;stroke-linejoin:miter;stroke-opacity:1"
         d="M -2.40625,44.5 L -0.40625,46.9375 C -0.40625,46.9375 5.25,53.937549 5.25,64.5 C 5.25,75.062451 -0.40625,82.0625 -0.40625,82.0625 L -2.40625,84.5 L 0.75,84.5 L 14.75,84.5 C 17.158076,84.500001 22.439699,84.524514 28.375,82.09375 C 34.310301,79.662986 40.911536,74.750484 46.0625,65.21875 L 44.75,64.5 L 46.0625,63.78125 C 35.759387,44.71559 19.506574,44.5 14.75,44.5 L 0.75,44.5 L -2.40625,44.5 z M 3.46875,47.5 L 14.75,47.5 C 19.434173,47.5 33.03685,47.369793 42.71875,64.5 C 37.951964,72.929075 32.197469,77.18391 27,79.3125 C 21.639339,81.507924 17.158075,81.500001 14.75,81.5 L 3.5,81.5 C 5.3735884,78.391566 8.25,72.45065 8.25,64.5 C 8.25,56.526646 5.3414686,50.599815 3.46875,47.5 z" />
    </g>
  </g>
  	<g style="stroke:#000000;stroke-width:2">
		<polyline points="23,15 5,15"/>
		<polyline points="32,35 5,35"/> 
		<polyline points="70,25 95,25"/> 
		<circle cx="27" cy="15" r="3" style="fill-opacity:0"/>
	</g>
</svg>
